!!!OTL@@FUR: Fra las cretos di Culino
!!!OTL@IT: Fra le roccie di Collina
!!!OTL@EN: In the rocks of Collina
**kern
*clefG2
*k[b-]
*F:
*M3/4
*MM60
*>[A]
*>A
8.cc
16dd
=1
4cc
4a
8.cc
16dd
=2
4cc
4a
8cc
8cc
=3
4.dd
8cc
8.b-
16a
=4
2g
8.b-
16cc
=5
4b-
4g
8.b-
16cc
=6
4b-
4g
8.cc
16dd
=7
4.cc
8b-
8.a
16g
=8
2a
8.cc
16dd
=9
4cc
4a
8.cc
16dd
=10
4cc
4a
8cc
8cc
=11
4.dd
8cc
8.b-
16a
=12
2g
8.b-
16cc
=13
4b-
4g
8.b-
16cc
=14
4b-
4g
8.cc
16dd
=15
4.cc
8b-
8.a
16g
=16
2.a
==
*-
!!!ARE: Friuli
!!!ENC: Kelly Leistikow
!!!END: 2002/03/07
!!!ref: @{OTL@@FUR}/@{OTL@EN}
